!!!COM:	Bach, Johann Sebastian
!!!CDT:	1685/02/21/-1750/07/28/
!!!OTL@@DE:	Weg, mein Herz, mit den Gedanken
!!!SCT:	BWV 19/7
!!!PC#:	298
!!!AGN:	chorale
**kern	**kern	**kern	**kern
*ICvox	*ICvox	*ICvox	*ICvox
*Ibass	*Itenor	*Ialto	*Isoprn
*I"Bass	*I"Tenor	*I"Alto	*I"Soprano
*>[A,A,B]	*>[A,A,B]	*>[A,A,B]	*>[A,A,B]
*>norep[A,B]	*>norep[A,B]	*>norep[A,B]	*>norep[A,B]
*>A	*>A	*>A	*>A
*clefF4	*clefGv2	*clefG2	*clefG2
*k[]	*k[]	*k[]	*k[]
*C:	*C:	*C:	*C:
*M3/4	*M3/4	*M3/4	*M3/4
*MM100	*MM100	*MM100	*MM100
=1-	=1-	=1-	=1-
2c	2e	2g	2cc
4G	4B	4g	4dd
=2	=2	=2	=2
2C	4c	2g	2ee
.	4B	.	.
4D	4A	4f#	4dd
=3	=3	=3	=3
4E	4e	4g	2cc
4F#	4d	4a	.
4G	4d	4g	4b
=4	=4	=4	=4
4C	4c	4e	2.a
2D	2A	2f#	.
=5	=5	=5	=5
2.GG;	2.B;	2.d;	2.g;
=6	=6	=6	=6
2E	2G	2c	2cc
4G	4B	4g	4dd
=7	=7	=7	=7
4c	2c	2g	2ee
4B	.	.	.
4A	4c	4a	4ff
=8	=8	=8	=8
4G	2c	4e	4ee
4F	.	4a	2dd
4G	4B	4g	.
=9	=9	=9	=9
2.C;	2.G;	2.e;	2.cc;
=10:|!	=10:|!	=10:|!	=10:|!
*>B	*>B	*>B	*>B
2c	2c	2g	2ee
4A	4c	4a	4ff
=11	=11	=11	=11
2E	2c	2b-	2gg
4F	4c	4a	4ff
=12	=12	=12	=12
4G	2c	4e	4ee
4F	.	4a	2dd
4G	4B	4g	.
=13	=13	=13	=13
2.C;	2.c;	2.g;	2.ee;
=14	=14	=14	=14
4C	4e	4cc	4gg
8cL	2e	2b-	2gg
8B-	.	.	.
8A	.	.	.
8GJ	.	.	.
=15	=15	=15	=15
2F	4c	4a	2aa
.	4d	4bnX	.
4E	4e	4cc	4gg
=16	=16	=16	=16
8AL	2c	4cc	4ff
8BJ	.	.	.
4c	.	2g	2ee
4C	4c	.	.
=17	=17	=17	=17
2.G;	2.B;	2.g;	2.dd;
=18	=18	=18	=18
2c	2c	2g	2ee
4E	4c	4g	4gg
=19	=19	=19	=19
2F	2c	2a	2ff
4G	4B	4g	4ee
=20	=20	=20	=20
4A	4c	4f	4cc
4B	2B	4d	2dd
4G	.	4g	.
=21	=21	=21	=21
2c	2c	2.g	2.ee
4C	4B-	.	.
=22	=22	=22	=22
2.F;	2.A;	2.f;	2.cc;
=23	=23	=23	=23
2C	2c	2g	2ee
4c	4e	4g	4gg
=24	=24	=24	=24
4c	2d	2g	2ff
4B	.	.	.
4c	4c	4g	4ee
=25	=25	=25	=25
4F	4A	4f	2dd
4G	4B	4d	.
4C	[4c	4g	4ee
=26	=26	=26	=26
2.GG	4c]	2.g	2.dd
.	8BL	.	.
.	8dJ	.	.
.	4f	.	.
=27	=27	=27	=27
2.C;	2.e;	2.g;	2.cc;
==	==	==	==
*-	*-	*-	*-
!!!hum2abc: -Q ''
!!!title: @{PC#}. @{OTL@@DE}
!!!YOR1: 371 vierstimmige Choralges&auml;nge von Johann Sebastian Bach, 
!!!YOR2: 4th ed. by Alfred D&ouml;rffel (Leipzig: Breitkopf und H&auml;rtel, 
!!!YOR2: c.1875). 178 pp. Plate "V.A.10".  reprint: J.S. Bach, 371 Four-Part 
!!!YOR4: Chorales (New York: Associated Music Publishers, Inc., c.1940).
!!!SMS: B&H, 4th ed, Alfred D&ouml;rffel, c.1875, plate V.A.10
!!!EED:  Craig Stuart Sapp
!!!EEV:  2009/05/22
